src/distro-icons/ubuntu.svg

<svg width="512" height="512" fill="none" xmlns="http://www.w3.org/2000/svg">
<circle cx="256" cy="256" r="256" fill="#fff"/>
<path d="M512 256.002c0 141.379-114.618 255.996-256.005 255.996C114.611 511.998 0 397.381 0 256.002 0 114.613 114.611 0 255.995 0 397.382 0 512 114.613 512 256.002Z" fill="#F47421"/>
<path d="M325.947 134.832c16.346 9.44 37.243 3.841 46.676-12.5 9.438-16.348 3.844-37.243-12.504-46.681-16.344-9.435-37.239-3.837-46.677 12.51-9.435 16.342-3.838 37.236 12.505 46.671Zm-69.95 221.006a99.448 99.448 0 0 1-42.057-9.289l-23.748 42.558c19.837 9.822 42.17 15.372 65.805 15.372 13.746 0 27.036-1.905 39.667-5.402 2.234-13.727 10.385-26.379 23.38-33.883 12.972-7.489 27.985-8.231 40.98-3.32 25.272-24.85 41.717-58.659 44.111-96.311l-48.71-.709c-4.483 51.001-47.269 90.984-99.428 90.984Zm0-199.679c52.159 0 94.945 39.991 99.428 90.986l48.71-.711c-2.397-37.648-18.842-71.458-44.118-96.306-12.993 4.908-28.004 4.164-40.978-3.327-12.993-7.501-21.142-20.151-23.377-33.88a148.51 148.51 0 0 0-39.665-5.4c-23.635 0-45.966 5.548-65.802 15.374l23.747 42.553a99.417 99.417 0 0 1 42.055-9.289Zm-99.837 99.839c0-33.778 16.786-63.611 42.452-81.677l-24.986-41.858c-29.91 19.985-52.161 50.533-61.402 86.316 10.796 8.799 17.694 22.2 17.694 37.223 0 15.021-6.899 28.421-17.696 37.219 9.24 35.785 31.491 66.333 61.402 86.318l24.988-41.86c-25.666-18.064-42.452-47.898-42.452-81.681Zm169.792 121.165c-16.348 9.438-21.945 30.331-12.509 46.672 9.439 16.348 30.331 21.949 46.679 12.511 16.343-9.437 21.943-30.332 12.504-46.678-9.435-16.339-30.331-21.94-46.674-12.505ZM81.921 221.825c-18.88 0-34.179 15.297-34.179 34.177 0 18.875 15.299 34.173 34.179 34.173 18.873 0 34.173-15.298 34.173-34.173 0-18.88-15.3-34.177-34.173-34.177Z" fill="#fff"/>
</svg>

<svg width="512" height="512" viewBox="0 0 512 512" fill="none" xmlns="http://www.w3.org/2000/svg">
<circle cx="256" cy="256" r="256" fill="white"/>
<path d="M512 256.002C512 397.381 397.382 511.998 255.995 511.998C114.611 511.998 0 397.381 0 256.002C0 114.613 114.611 0 255.995 0C397.382 0 512 114.613 512 256.002Z" fill="#F47421"/>
<path d="M325.947 134.832C342.293 144.272 363.19 138.673 372.623 122.332C382.061 105.984 376.467 85.0892 360.119 75.6509C343.775 66.2159 322.88 71.8135 313.442 88.1614C304.007 104.503 309.604 125.397 325.947 134.832V134.832ZM255.997 355.838C240.968 355.838 226.725 352.496 213.94 346.549L190.192 389.107C210.029 398.929 232.362 404.479 255.997 404.479C269.743 404.479 283.033 402.574 295.664 399.077C297.898 385.35 306.049 372.698 319.044 365.194C332.016 357.705 347.029 356.963 360.024 361.874C385.296 337.024 401.741 303.215 404.135 265.563L355.425 264.854C350.942 315.855 308.156 355.838 255.997 355.838ZM255.997 156.159C308.156 156.159 350.942 196.15 355.425 247.145L404.135 246.434C401.738 208.786 385.293 174.976 360.017 150.128C347.024 155.036 332.013 154.292 319.039 146.801C306.046 139.3 297.897 126.65 295.662 112.921C283.033 109.427 269.743 107.521 255.997 107.521C232.362 107.521 210.031 113.069 190.195 122.895L213.942 165.448C226.725 159.5 240.968 156.159 255.997 156.159V156.159ZM156.16 255.998C156.16 222.22 172.946 192.387 198.612 174.321L173.626 132.463C143.716 152.448 121.465 182.996 112.224 218.779C123.02 227.578 129.918 240.979 129.918 256.002C129.918 271.023 123.019 284.423 112.222 293.221C121.462 329.006 143.713 359.554 173.624 379.539L198.612 337.679C172.946 319.615 156.16 289.781 156.16 255.998V255.998ZM325.952 377.163C309.604 386.601 304.007 407.494 313.443 423.835C322.882 440.183 343.774 445.784 360.122 436.346C376.465 426.909 382.065 406.014 372.626 389.668C363.191 373.329 342.295 367.728 325.952 377.163ZM81.9208 221.825C63.0408 221.825 47.7422 237.122 47.7422 256.002C47.7422 274.877 63.0408 290.175 81.9208 290.175C100.794 290.175 116.094 274.877 116.094 256.002C116.094 237.122 100.794 221.825 81.9208 221.825Z" fill="white"/>
<circle cx="434.5" cy="434.5" r="77.5" fill="white"/>
<path d="M425.077 383.035L389.695 383.035C388.859 383.035 388.182 383.713 388.182 384.549C388.182 385.385 388.859 386.063 389.695 386.063L422.466 386.063C422.7 385.715 422.942 385.369 423.192 385.024L424.3 383.494L425.077 383.035Z" fill="#E91F63"/>
<path d="M414.021 402.627C413.758 403.326 413.481 404.062 413.201 404.832L375.77 404.832C374.934 404.832 374.256 404.154 374.256 403.318C374.256 402.482 374.934 401.805 375.77 401.805L414.365 401.805L414.256 402.001L414.021 402.627Z" fill="#E91F63" fill-opacity="0.7"/>
<path d="M409.981 420.271L369.715 420.271C368.879 420.271 368.201 420.949 368.201 421.785C368.201 422.621 368.879 423.299 369.715 423.299L409.566 423.299C409.574 423.255 409.583 423.211 409.591 423.168L409.6 423.123C409.788 422.168 409.911 421.53 409.988 421.029C409.983 420.775 409.98 420.523 409.981 420.271Z" fill="#E91F63" fill-opacity="0.3"/>
<path d="M411.238 439.041L368.201 439.041C367.365 439.041 366.688 439.719 366.688 440.555C366.688 441.391 367.365 442.068 368.201 442.068L413.542 442.068C413.244 441.681 412.941 441.299 412.632 440.922C412.101 440.306 411.639 439.677 411.238 439.041Z" fill="#E91F63"/>
<path d="M422.95 457.508L372.742 457.508C371.906 457.508 371.229 458.186 371.229 459.021C371.229 459.857 371.906 460.535 372.742 460.535L424.569 460.535C424.27 459.958 423.969 459.383 423.665 458.809C423.424 458.372 423.186 457.938 422.95 457.508Z" fill="#E91F63" fill-opacity="0.6"/>
<path d="M431.847 476.277L384.852 476.277C384.016 476.277 383.338 476.955 383.338 477.791C383.338 478.627 384.016 479.305 384.852 479.305L433.073 479.305C432.672 478.292 432.263 477.283 431.847 476.277Z" fill="#E91F63"/>
<path d="M448.208 374.214C447.614 376.864 443.434 373.631 442.641 376.63C437.96 373.333 442.354 380.198 441.734 380.632L441.697 380.625L441.325 380.512C441.094 380.375 440.764 380.15 440.296 379.717C436.146 381.868 434.892 387.786 430.546 390.353C427.094 395.117 425.379 400.679 422.521 405.826C420.618 410.883 418.819 415.96 419.089 421.445C418.641 425.778 416.273 431.325 419.566 435.056C424.389 440.907 427.989 447.831 431.655 454.491C437.386 465.283 442.074 476.628 445.996 488.138C446.898 485.638 446.326 493.584 447.95 494.447C448.115 490.45 448.554 484.132 449.121 479.267C449.667 466.363 445.729 453.84 445.85 440.978C445.881 440.441 445.903 439.887 445.935 439.34L446.242 437.784L446.052 437.746C446.498 431.468 447.533 424.774 452.918 420.909C458.369 417.22 465.37 417.399 471.458 415.288C472.815 414.809 474.207 414.478 475.59 414.321C475.601 414.32 475.617 414.33 475.628 414.329C479.652 413.905 483.694 414.739 487.508 416.156C487.565 416.177 487.634 416.21 487.69 416.231C488.037 416.362 488.413 416.499 488.755 416.638C491.586 417.462 497.164 419.735 498.603 417.946C495.295 413.77 489.507 412.883 484.894 410.585C484.155 410.294 483.237 409.955 482.306 409.681L477.761 407.68L476.642 407.144L476.635 407.182L460.262 400.521C460.04 400.222 459.796 399.912 459.56 399.673L475.693 404.985L475.708 404.909C476.266 405.154 476.824 405.374 477.399 405.558L477.392 405.596L488.664 410.065C490.534 411.217 492.576 412.2 494.568 412.731C497.805 413.873 501.069 419.684 502.103 420.14C502.599 414.793 497.834 411.417 493.794 409.029C489.21 405.562 481.615 404.167 482.107 397.177C481.987 396.66 481.87 396.144 481.702 395.632L480.249 392.617L480.333 392.594C478.261 388.877 474.922 385.819 471.059 384.136C467.332 381.961 463.103 379.701 458.942 378.313C456.674 382.262 456.563 374.358 452.666 375.932C449.567 375.694 449.823 376.576 447.951 374.214L448.208 374.214ZM467.532 390.906C468.634 391.093 469.845 391.541 471.024 392.225C474.151 394.046 475.857 396.929 474.846 398.663C473.835 400.396 470.466 400.314 467.34 398.485C464.214 396.657 462.497 393.83 463.51 392.084C464.142 390.997 465.698 390.595 467.532 390.906Z" fill="#E91F63"/>
<path d="M466.591 399.038C469.725 401.043 473.309 401.039 474.595 399.029C475.881 397.019 474.383 393.764 471.248 391.759C468.114 389.754 464.531 389.758 463.245 391.768C461.959 393.778 463.457 397.033 466.591 399.038Z" fill="black"/>
<path fill-rule="evenodd" clip-rule="evenodd" d="M471.284 399.026C472.422 399.025 473.049 398.636 473.32 398.214C473.59 397.791 473.68 397.058 473.204 396.025C472.737 395.01 471.793 393.904 470.433 393.034C469.073 392.164 467.673 391.77 466.555 391.771C465.418 391.773 464.79 392.161 464.52 392.584C464.25 393.006 464.16 393.739 464.636 394.772C465.103 395.787 466.047 396.893 467.407 397.763C468.767 398.633 470.167 399.027 471.284 399.026ZM474.595 399.029C473.309 401.039 469.725 401.043 466.591 399.038C463.457 397.033 461.959 393.778 463.245 391.768C464.531 389.758 468.114 389.754 471.248 391.759C474.383 393.764 475.881 397.019 474.595 399.029Z" fill="white"/>
</svg>
